src/2-landmarks/assistant--guard-ease.svg

<svg width="1300" height="1000" viewBox="0 0 1300 1000" fill="none" xmlns="http://www.w3.org/2000/svg"><g clip-path="url(#a)"><path d="M0 900h1300v100H0V900Zm872.074-430.838c0-1.662 5.902-57.128 23.43-93.162 15.049-29.175 39.06-33.545 77.179-33.98 36.977-.425 67.037 5.517 82.947 33.198 15.44 36.103 21.28 91.186 21.28 91.186l-3.81 106.336 2.14 32.258c.82 12.226-10.68 21.6-22.49 18.345a2.236 2.236 0 0 1-1.57-1.595l-5.68-22.248 8 118.5-1.5 156 15.6 6.406a19.988 19.988 0 0 1 12.4 18.5V900h-93.496l1.5-18a9.97 9.97 0 0 1-4.439-8.408L985.004 746l-9.5-125-9 125v128c0 3.147-1.482 6.111-4 8l1.5 18H872a19.734 19.734 0 0 1 11.301-17.842l16.203-7.658-2-156.5 6.5-118.5-5.869 22.986a.919.919 0 0 1-.642.657c-12.056 3.375-23.881-6.04-23.292-18.546l1.519-32.228s-3.646-59.369-3.646-103.207Z" fill="#000"/><path d="M878.07 472.47s5.44-56.684 21.98-91.955c14.201-28.558 36.989-32.07 72.96-32.495 34.89-.417 63.26 5.4 78.27 32.495 14.57 35.339 20.08 89.255 20.08 89.255l-3.59 104.085 1.44 31.419c.3 6.699-5.03 12.309-11.73 12.349a1.48 1.48 0 0 1-1.45-1.132l-10.31-42.999-10.18-105.412-6.89-48.962a1.263 1.263 0 0 0-1.26-1.098c-.75 0-1.33.64-1.27 1.386L1032 487.5l3 30.5 3 55.855 9.5 143.152-1.5 161.008 21.22 9.112a10.017 10.017 0 0 1 6.05 9.021l.06 3.852H992.5l2.09-22.01a5.004 5.004 0 0 1-5.033-5.05l1.198-128.82-12.532-147.284a2.86 2.86 0 0 0-5.698.01L960.49 744.135l-.242 129.575a4.319 4.319 0 0 1-4.348 4.31l1.991 21.98H878c0-5.192 2.968-9.927 7.641-12.19l20.179-9.77-2.16-161.02L911 573.5l2.5-55.5 3-30 5.395-68.665a1.228 1.228 0 0 0-2.442-.253l-6.463 50.008-9.49 104.402-10.216 43.652a.63.63 0 0 1-.613.486c-7.175 0-12.898-5.99-12.572-13.158l1.411-30.98-3.45-101.022h.01Z" fill="#fff"/><path d="M1005.13 261.625c2.01 2.433 3.61 5.124 4.95 8.053 2.01 4.384 2.92 8.615 2.92 13.398 0 1.804-.2 3.959-.49 5.742l-4.86 23.834a25.042 25.042 0 0 1-1.01 3.616c-1.04 2.794-3.21 8.178-5.32 10.83-2.921 3.676-7.163 6.929-11.671 8.613-3.769 1.407-10.807 1.909-12.649 1.914 0 0-8.301-.07-13.135-1.914-5.448-2.079-8.483-4.109-12.162-8.575-2.49-3.022-4.438-8.223-5.322-10.854-.362-1.078-.611-2.188-.801-3.309l-4.093-24.155s-.495-3.492-.487-5.742c.02-5.351.746-8.492 2.919-13.398 1.508-3.405 2.889-5.74 4.887-8.053h56.324Z" fill="#000"/><path d="M987.189 329.387c-3.036 1.186-8.705 1.609-10.189 1.613 0 0-6.687-.059-10.581-1.613-4.389-1.752-6.834-3.463-9.797-7.226-1.948-2.474-3.485-6.681-4.224-8.951-.338-1.039-.567-2.106-.741-3.184l-3.265-20.155s-.399-2.943-.392-4.839c.016-4.509.601-7.157 2.351-11.291 1.799-4.245 3.371-6.518 6.663-9.677 3.508-3.368 6.037-4.839 10.581-6.426 3.527-1.232 5.68-1.607 9.405-1.638 3.998.141 5.487.403 9.302 1.638 3.819 1.33 7.718 3.686 10.685 6.426 2.966 2.74 5.043 5.984 6.663 9.678 1.62 3.693 2.35 7.259 2.35 11.29 0 1.52-.16 3.336-.39 4.839l-3.88 19.862a24.563 24.563 0 0 1-.93 3.486c-.868 2.406-2.556 6.741-4.205 8.91-2.357 3.097-5.774 5.839-9.406 7.258Z" fill="#fff"/><path d="M942.998 264.625H1009c0 9.388-7.61 17-17.002 17h-32c-9.389 0-17-7.612-17-17Z" fill="#000"/><path d="M950.998 268.625H1001c0 3.313-2.688 6-6.002 6h-38a6 6 0 0 1-6-6Z" fill="#fff"/><path d="m1008 268.625 4.82-17.679c.67-2.46-.62-5.03-2.99-5.966l-31.996-12.631a5.007 5.007 0 0 0-3.672 0l-31.997 12.631a4.999 4.999 0 0 0-2.988 5.966l4.821 17.679H1008Z" fill="#000"/><path d="m1003 261.625 3-11-30.002-11-30 11 3 11H1003Z" fill="#fff"/></g><defs><clipPath id="a"><path fill="#fff" d="M0 0h1300v1000H0z"/></clipPath></defs></svg>

<svg width="1300" height="1000" viewBox="0 0 1300 1000" fill="none" xmlns="http://www.w3.org/2000/svg">
<g clip-path="url(#clip0_888_113)">
<path d="M0 900H1300V1000H0V900Z" fill="black"/>
<path d="M872.074 469.162C872.074 467.5 877.976 412.034 895.504 376C910.553 346.825 934.564 342.455 972.683 342.02C1009.66 341.595 1039.72 347.537 1055.63 375.218C1071.07 411.321 1076.91 466.404 1076.91 466.404L1073.1 572.74L1075.24 604.998C1076.06 617.224 1064.56 626.598 1052.75 623.343C1051.98 623.131 1051.38 622.522 1051.18 621.748L1045.5 599.5L1053.5 718L1052 874L1067.6 880.406C1075.11 883.488 1080 890.795 1080 898.906V900H986.504L988.004 882C985.197 880.128 983.527 876.965 983.565 873.592L985.004 746L975.504 621L966.504 746V874C966.504 877.147 965.022 880.111 962.504 882L964.004 900H872C872 892.367 876.401 885.419 883.301 882.158L899.504 874.5L897.504 718L904.004 599.5L898.135 622.486C898.054 622.804 897.809 623.054 897.493 623.143C885.437 626.518 873.612 617.103 874.201 604.597L875.72 572.369C875.72 572.369 872.074 513 872.074 469.162Z" fill="black"/>
<path d="M878.07 472.47C878.07 472.47 883.51 415.786 900.05 380.515C914.251 351.957 937.039 348.445 973.01 348.02C1007.9 347.603 1036.27 353.42 1051.28 380.515C1065.85 415.854 1071.36 469.77 1071.36 469.77L1067.77 573.855L1069.21 605.274C1069.51 611.973 1064.18 617.583 1057.48 617.623C1056.79 617.627 1056.19 617.158 1056.03 616.491L1045.72 573.492L1035.54 468.08L1028.65 419.118C1028.57 418.488 1028.03 418.02 1027.39 418.02C1026.64 418.02 1026.06 418.66 1026.12 419.406L1032 487.5L1035 518L1038 573.855L1047.5 717.007L1046 878.015L1067.22 887.127C1070.83 888.681 1073.2 892.212 1073.27 896.148L1073.33 900H992.5L994.59 877.99C991.797 878.006 989.531 875.733 989.557 872.94L990.755 744.12L978.223 596.836C978.097 595.357 976.859 594.22 975.374 594.22C973.886 594.22 972.647 595.362 972.525 596.846L960.49 744.135L960.248 873.71C960.244 876.103 958.293 878.036 955.9 878.02L957.891 900H878C878 894.808 880.968 890.073 885.641 887.81L905.82 878.04L903.66 717.02L911 573.5L913.5 518L916.5 488L921.895 419.335C921.951 418.617 921.381 418.005 920.66 418.011C920.047 418.016 919.531 418.473 919.453 419.082L912.99 469.09L903.5 573.492L893.284 617.144C893.217 617.429 892.963 617.63 892.671 617.63C885.496 617.63 879.773 611.64 880.099 604.472L881.51 573.492L878.06 472.47H878.07Z" fill="white"/>
<path d="M1005.13 261.625C1007.14 264.058 1008.74 266.749 1010.08 269.678C1012.09 274.062 1013 278.293 1013 283.076C1013 284.88 1012.8 287.035 1012.51 288.818L1007.65 312.652C1007.4 313.881 1007.07 315.093 1006.64 316.268C1005.6 319.062 1003.43 324.446 1001.32 327.098C998.399 330.774 994.157 334.027 989.649 335.711C985.88 337.118 978.842 337.62 977 337.625C977 337.625 968.699 337.555 963.865 335.711C958.417 333.632 955.382 331.602 951.703 327.136C949.213 324.114 947.265 318.913 946.381 316.282C946.019 315.204 945.77 314.094 945.58 312.973L941.487 288.818C941.487 288.818 940.992 285.326 941 283.076C941.02 277.725 941.746 274.584 943.919 269.678C945.427 266.273 946.808 263.938 948.806 261.625H1005.13Z" fill="black"/>
<path d="M987.189 329.387C984.153 330.573 978.484 330.996 977 331C977 331 970.313 330.941 966.419 329.387C962.03 327.635 959.585 325.924 956.622 322.161C954.674 319.687 953.137 315.48 952.398 313.21C952.06 312.171 951.831 311.104 951.657 310.026L948.392 289.871C948.392 289.871 947.993 286.928 948 285.032C948.016 280.523 948.601 277.875 950.351 273.741C952.15 269.496 953.722 267.223 957.014 264.064C960.522 260.696 963.051 259.225 967.595 257.638C971.122 256.406 973.275 256.031 977 256C980.998 256.141 982.487 256.403 986.302 257.638C990.121 258.968 994.02 261.324 996.987 264.064C999.953 266.804 1002.03 270.048 1003.65 273.742C1005.27 277.435 1006 281.001 1006 285.032C1006 286.552 1005.84 288.368 1005.61 289.871L1001.73 309.733C1001.5 310.917 1001.2 312.084 1000.8 313.219C999.932 315.625 998.244 319.96 996.595 322.129C994.238 325.226 990.821 327.968 987.189 329.387Z" fill="white"/>
<path d="M942.998 264.625H1009C1009 274.013 1001.39 281.625 991.998 281.625H959.998C950.609 281.625 942.998 274.013 942.998 264.625Z" fill="black"/>
<path d="M950.998 268.625H1001C1001 271.938 998.312 274.625 994.998 274.625H956.998C953.684 274.625 950.998 271.938 950.998 268.625Z" fill="white"/>
<path d="M1008 268.625L1012.82 250.946C1013.49 248.486 1012.2 245.916 1009.83 244.98L977.834 232.349C976.654 231.884 975.342 231.884 974.162 232.349L942.165 244.98C939.793 245.916 938.506 248.486 939.177 250.946L943.998 268.625H1008Z" fill="black"/>
<path d="M1003 261.625L1006 250.625L975.998 239.625L945.998 250.625L948.998 261.625H1003Z" fill="white"/>
</g>
<defs>
<clipPath id="clip0_888_113">
<rect width="1300" height="1000" fill="white"/>
</clipPath>
</defs>
</svg>
